dist/images/pin.svg

<svg width="20" height="24" viewBox="0 0 20 24" fill="none" xmlns="http://www.w3.org/2000/svg">
<path d="M16.9851 2.45937C15.3331 0.873459 13.0469 0 10.5477 0C6.72995 0 4.38189 1.56493 3.08439 2.87768C1.48532 4.49548 0.568359 6.6436 0.568359 8.77136C0.568359 11.4429 1.68581 13.4934 3.55712 14.2563C3.68275 14.3077 3.80915 14.3337 3.93308 14.3337C4.32786 14.3337 4.64066 14.0754 4.74903 13.661C4.81219 13.4233 4.95857 12.8368 5.0222 12.5823C5.15843 12.0795 5.04836 11.8377 4.75127 11.4876C4.21004 10.8472 3.95801 10.0899 3.95801 9.10436C3.95801 6.17699 6.13778 3.06578 10.1778 3.06578C13.3834 3.06578 15.3747 4.8877 15.3747 7.82049C15.3747 9.67121 14.976 11.3852 14.252 12.6468C13.7488 13.5234 12.8641 14.5684 11.5058 14.5684C10.9184 14.5684 10.3908 14.3272 10.0579 13.9065C9.7434 13.5089 9.63975 12.9952 9.76623 12.4599C9.90913 11.855 10.104 11.2241 10.2925 10.6141C10.6364 9.50007 10.9615 8.44788 10.9615 7.6084C10.9615 6.1725 10.0788 5.2077 8.76513 5.2077C7.09562 5.2077 5.78767 6.90338 5.78767 9.06806C5.78767 10.1297 6.06982 10.9237 6.19754 11.2286C5.98723 12.1197 4.73726 17.4176 4.50016 18.4166C4.36308 18.9997 3.53722 23.6058 4.90415 23.9731C6.43998 24.3858 7.81279 19.8998 7.95251 19.3928C8.06576 18.9806 8.462 17.4217 8.70483 16.4634C9.44623 17.1775 10.64 17.6603 11.8016 17.6603C13.9913 17.6603 15.9606 16.6749 17.3468 14.8858C18.6911 13.1505 19.4315 10.7318 19.4315 8.0757C19.4315 5.99919 18.5398 3.95209 16.9851 2.45937Z" fill="#0094FF"/>
</svg>

<svg width="20" height="24" fill="none" xmlns="http://www.w3.org/2000/svg"><path d="M16.985 2.46C15.333.872 13.047 0 10.548 0 6.73 0 4.382 1.565 3.084 2.878 1.485 4.495.568 6.644.568 8.77c0 2.672 1.118 4.722 2.99 5.485a.991.991 0 00.375.078c.395 0 .708-.259.816-.673.063-.238.21-.824.273-1.079.136-.503.026-.744-.27-1.094-.542-.64-.794-1.398-.794-2.384 0-2.927 2.18-6.038 6.22-6.038 3.205 0 5.197 1.822 5.197 4.754 0 1.851-.399 3.565-1.123 4.827-.503.876-1.388 1.921-2.746 1.921-.588 0-1.115-.24-1.448-.662-.315-.397-.418-.91-.292-1.446a28.67 28.67 0 01.527-1.846c.343-1.114.668-2.166.668-3.006 0-1.435-.882-2.4-2.196-2.4-1.67 0-2.977 1.695-2.977 3.86a5.74 5.74 0 00.41 2.16c-.21.892-1.46 6.19-1.698 7.189-.137.583-.963 5.189.404 5.556 1.536.413 2.909-4.073 3.049-4.58.113-.412.509-1.971.752-2.93.741.714 1.935 1.197 3.097 1.197 2.19 0 4.159-.985 5.545-2.774 1.344-1.736 2.084-4.154 2.084-6.81 0-2.077-.891-4.124-2.446-5.617z" fill="#0094FF"/></svg>
